src/svg/food.svg

<svg height="1000" width="785.714" xmlns="http://www.w3.org/2000/svg"><path d="M357.12 35.776v357.12q0 34.038 -19.809 61.938t-51.615 39.06v434.682q0 29.016 -21.204 50.22t-50.22 21.204h-71.424q-29.016 0 -50.22 -21.204t-21.204 -50.22v-434.682q-31.806 -11.16 -51.615 -39.06t-19.809 -61.938v-357.12q0 -14.508 10.602 -25.11t25.11 -10.602 25.11 10.602 10.602 25.11v232.128q0 14.508 10.602 25.11t25.11 10.602 25.11 -10.602 10.602 -25.11v-232.128q0 -14.508 10.602 -25.11t25.11 -10.602 25.11 10.602 10.602 25.11v232.128q0 14.508 10.602 25.11t25.11 10.602 25.11 -10.602 10.602 -25.11v-232.128q0 -14.508 10.602 -25.11t25.11 -10.602 25.11 10.602 10.602 25.11zm428.544 0v892.8q0 29.016 -21.204 50.22t-50.22 21.204h-71.424q-29.016 0 -50.22 -21.204t-21.204 -50.22v-285.696h-124.992q-7.254 0 -12.555 -5.301t-5.301 -12.555v-446.4q0 -73.656 52.452 -126.108t126.108 -52.452h142.848q14.508 0 25.11 10.602t10.602 25.11z"/></svg>

<svg height="1000" width="785.7" xmlns="http://www.w3.org/2000/svg"><path d="M357.1 35.7v357.2q0 34 -19.8 61.9t-51.6 39.1v434.7q0 29 -21.2 50.2t-50.2 21.2h-71.4q-29.1 0 -50.3 -21.2T71.4 928.6V493.9Q39.6 482.7 19.8 454.8T0 392.9V35.7Q0 21.2 10.6 10.6T35.7 0t25.1 10.6 10.6 25.1v232.2q0 14.5 10.6 25.1t25.1 10.6T132.3 293t10.6 -25.1V35.7q0 -14.5 10.6 -25.1T178.6 0t25.1 10.6 10.6 25.1v232.2q0 14.5 10.6 25.1t25.1 10.6T275.1 293t10.6 -25.1V35.7q0 -14.5 10.6 -25.1T321.4 0t25.1 10.6 10.6 25.1zm428.6 0v892.9q0 29 -21.2 50.2t-50.2 21.2h-71.4q-29.1 0 -50.3 -21.2t-21.2 -50.2V642.9h-125q-7.2 0 -12.5 -5.3T428.6 625V178.6q0 -73.7 52.4 -126.1T607.1 0H750q14.5 0 25.1 10.6t10.6 25.1z"/></svg>
